build/documents/InvoiceOutline.svg

<svg xmlns="http://www.w3.org/2000/svg" fill="none" viewBox="0 0 24 24" focusable="false"><path fill="none" d="M0 0H24V24H0z"/><path fill="#74767B" fill-rule="evenodd" d="M4 6C4 4.34315 5.34315 3 7 3L13.7574 3C14.553 3 15.3161 3.31607 15.8787 3.87868L19.1213 7.12132C19.6839 7.68393 20 8.44699 20 9.24264L20 18C20 19.6569 18.6569 21 17 21L7 21C5.34315 21 4 19.6569 4 18L4 6ZM7 4.3L13.7574 4.3C13.8395 4.3 13.921 4.30594 14.0014 4.3176L14.0014 6.64863C14.0014 7.9465 15.0535 8.99863 16.3514 8.99863L18.6824 8.99863C18.6941 9.07897 18.7 9.1605 18.7 9.24264L18.7 18C18.7 18.9389 17.9389 19.7 17 19.7L7 19.7C6.06112 19.7 5.3 18.9389 5.3 18L5.3 6C5.3 5.06112 6.06112 4.3 7 4.3ZM15.3014 6.64863L15.3014 5.13984L17.8602 7.69863L16.3514 7.69863C15.7715 7.69863 15.3014 7.22853 15.3014 6.64863ZM7.96523 8.34863C7.96523 7.98965 8.25625 7.69863 8.61523 7.69863L11.3551 7.69863C11.7141 7.69863 12.0051 7.98965 12.0051 8.34863C12.0051 8.70762 11.7141 8.99863 11.3551 8.99863L8.61523 8.99863C8.25625 8.99863 7.96523 8.70762 7.96523 8.34863ZM7.92822 11.0125C7.92822 10.6259 8.24162 10.3125 8.62822 10.3125L15.3 10.3125C15.6866 10.3125 16 10.6259 16 11.0125L16 16.3C16 16.6866 15.6866 17 15.3 17L8.62822 17C8.24162 17 7.92822 16.6866 7.92822 16.3L7.92822 11.0125ZM14.7 13.0063L9.22822 13.0063L9.22822 11.6125L14.7 11.6125L14.7 13.0063ZM9.22822 14.3062L9.22822 15.7L14.7 15.7L14.7 14.3062L9.22822 14.3062Z"/></svg>

<svg xmlns="http://www.w3.org/2000/svg" fill="none" viewBox="0 0 24 24" focusable="false"><path fill="none" d="M0 0h24v24H0z"/><path fill="#74767B" fill-rule="evenodd" d="M4 6c0-1.66 1.34-3 3-3h6.75c.8 0 1.56.31 2.12.87l3.25 3.25c.56.56.88 1.32.88 2.12V18c0 1.65-1.35 3-3 3H7c-1.66 0-3-1.35-3-3zm3-1.71h6.75c.08 0 .17.01.25.02v2.33c0 1.3 1.05 2.35 2.35 2.35h2.33c.01.08.02.17.02.25V18c0 .93-.77 1.7-1.7 1.7H7c-.94 0-1.7-.77-1.7-1.7V6c0-.94.76-1.71 1.7-1.71m8.3 2.35V5.13l2.56 2.56h-1.51c-.58 0-1.05-.47-1.05-1.05m-7.34 1.7c0-.36.29-.65.65-.65h2.74c.36 0 .65.29.65.65s-.29.65-.65.65H8.61c-.36 0-.65-.29-.65-.65m-.04 2.67c0-.39.32-.7.7-.7h6.68c.38 0 .7.31.7.7v5.28c0 .39-.32.71-.7.71H8.62a.71.71 0 0 1-.7-.71zM14.7 13H9.22v-1.39h5.48zm-5.48 1.3v1.4h5.48v-1.4z"/></svg>
